!!! OTL: Berkowitz433
!!! Chapter: 1
!!! Section: IV
!!! Page: 108
!!! Mode: 
!!! Encoder: DJB
**kern
*staff1
*I"Piano
=1-
*clefG2
*k[f#c#g#]
*f#:
*M2/4
8r
8c#/
8cc#\L
8a\J
=2
8r
8f#/
8dd/L
8e#/J
=3
16r
16f#/LL
16g#/
16a/JJ
8b/L
16a/L
16g#/JJ
=4
8a/L
16g#/L
16f#/JJ
16g#/LL
16f#/
16e#/
16d#/JJ
=5
8e#/L
8c#/J
8r
8f#/
=6
8g#/L
8e#/J
8dd\L
8cc#\J
=7
8r
8e/
8cc#\L
8b\J
=8
8r
8d/
8b/L
16a/L
16g#/JJ
=9
!!linebreak:original
16a/LL
16g#/
16f#/
16g#/JJ
8c#/L
8e#/J
=10
2f#/
==
*-
